icons/lines/routing.svg

<svg xmlns="http://www.w3.org/2000/svg" width="24" height="24" viewBox="0 0 24 24" fill="none" stroke="currentColor" stroke-width="2" stroke-linecap="round" stroke-linejoin="round" >
  <path d="M2.07006 4.6C2.87006 1.14 8.08006 1.14 8.87006 4.6C9.34006 6.63 8.05006 8.35 6.93006 9.42C6.11006 10.2 4.82006 10.19 4.00006 9.42C2.89006 8.35 1.60006 6.63 2.07006 4.6Z"/>
  <path d="M15.07 16.6C15.87 13.14 21.11 13.14 21.91 16.6C22.38 18.63 21.09 20.35 19.96 21.42C19.14 22.2 17.84 22.19 17.02 21.42C15.89 20.35 14.6 18.63 15.07 16.6Z"/>
  <path d="M12.0002 5H14.6802C16.5302 5 17.3902 7.29 16.0002 8.51L8.01019 15.5C6.62019 16.71 7.48019 19 9.32019 19H12.0002"/>
  <path d="M5.48622 5.5H5.49777"/>
  <path d="M18.4862 17.5H18.4978"/>
  </svg>

<svg xmlns="http://www.w3.org/2000/svg" width="24" height="24" viewBox="0 0 24 24" fill="none" stroke="currentColor" stroke-width="2" stroke-linecap="round" stroke-linejoin="round">
  <path d="M12 5h2.68c1.85 0 2.71 2.29 1.32 3.51L8.01 15.5C6.62 16.71 7.48 19 9.32 19H12" />
  <path d="M15.07 16.6c.8-3.46 6.04-3.46 6.84 0 .47 2.03-.82 3.75-1.95 4.82a2.15 2.15 0 0 1-2.94 0c-1.13-1.07-2.42-2.79-1.95-4.82" />
  <path d="M18.486 17.5h.01" />
  <path d="M2.07 4.6c.8-3.46 6.01-3.46 6.8 0 .47 2.03-.82 3.75-1.94 4.82a2.137 2.137 0 0 1-2.93 0C2.89 8.35 1.6 6.63 2.07 4.6" />
  <path d="M5.486 5.5h.01" />
</svg>
